X: 5
T:Aiken Drum
% Nottingham Music Database
S:via PR
M:4/4
L:1/4
K:A
A/2B/2|"A"cc d/2c/2B/2A/2|"D"F2 A3/2F/2|"A"E3/2F/2 AE|"B7"cB "E7"BA/2B/2|\
"A"cc d/2c/2B/2A/2|"D"F2 A3/2F/2|"E7"EE FG|"A"A3::
A/2B/2|"A"cc cB/2A/2|"D"dd f3/2d/2|"A"ce cA|"Bm"cB "E7"BA/2B/2|\
"A"cc d/2c/2B/2A/2|"D"F2 A3/2F/2|"E7"EE FG|"A"A3:|


